anadea-new/source/img/icon-insta.svg

<svg width="17" height="16" viewBox="0 0 17 16" fill="none" xmlns="http://www.w3.org/2000/svg">
<path fill-rule="evenodd" clip-rule="evenodd" d="M14.2766 0H2.41353C1.2866 0 0.36499 0.828018 0.36499 2.03344V13.8103C0.36499 15.0158 1.2866 15.8438 2.41353 15.8438H14.2766C15.4032 15.8438 16.325 15.0158 16.325 13.8103V2.03344C16.325 0.828018 15.4032 0 14.2766 0ZM11.273 2.47364C11.273 2.08111 11.596 1.76031 11.9912 1.76031H13.7951C14.1903 1.76031 14.5136 2.08111 14.5136 2.47364V4.18092C14.5136 4.57329 14.1903 4.89425 13.7951 4.89425H11.9912C11.596 4.89425 11.273 4.57329 11.273 4.18092V2.47364ZM14.5212 6.70028H13.1165C13.2494 7.13104 13.3213 7.58734 13.3213 8.05943C13.3213 10.6948 11.0999 12.831 8.3602 12.831C5.62065 12.831 3.39958 10.6948 3.39958 8.05943C3.39958 7.58702 3.47135 7.13088 3.60441 6.70028H2.13861V13.3929C2.13861 13.7392 2.42407 14.0228 2.77311 14.0228H13.887C14.236 14.0228 14.5215 13.7394 14.5215 13.3929V6.70028H14.5212ZM5.15485 7.88748C5.15485 6.18459 6.59 4.80429 8.3601 4.80429C10.1305 4.80429 11.5657 6.18459 11.5657 7.88748C11.5657 9.59037 10.1304 10.9707 8.3601 10.9707C6.59 10.9707 5.15485 9.59037 5.15485 7.88748Z" fill="#82919A"/>
</svg>

<svg width="17" height="16" fill="none" xmlns="http://www.w3.org/2000/svg"><path fill-rule="evenodd" clip-rule="evenodd" d="M14.277 0H2.414C1.287 0 .365.828.365 2.033V13.81c0 1.206.922 2.034 2.049 2.034h11.863c1.126 0 2.048-.828 2.048-2.034V2.033C16.325.828 15.403 0 14.277 0zm-3.004 2.474c0-.393.323-.714.718-.714h1.804c.395 0 .719.321.719.714V4.18a.718.718 0 01-.719.713h-1.804a.718.718 0 01-.718-.713V2.474zM14.521 6.7h-1.405c.133.431.205.887.205 1.36 0 2.635-2.221 4.771-4.96 4.771-2.74 0-4.961-2.136-4.961-4.772A4.6 4.6 0 013.604 6.7H2.14v6.693c0 .346.285.63.634.63h11.114a.634.634 0 00.634-.63V6.7zM5.155 7.887c0-1.702 1.435-3.083 3.205-3.083s3.206 1.38 3.206 3.083c0 1.703-1.436 3.084-3.206 3.084S5.155 9.59 5.155 7.887z" fill="#82919A"/></svg>
